img/calendar.svg

<svg width="20" height="21" viewBox="0 0 20 21" fill="none" xmlns="http://www.w3.org/2000/svg">
<path d="M0 10.5H20V19.5C20 19.7652 19.8946 20.0196 19.7071 20.2071C19.5196 20.3946 19.2652 20.5 19 20.5H1C0.734784 20.5 0.48043 20.3946 0.292893 20.2071C0.105357 20.0196 0 19.7652 0 19.5V10.5ZM15 2.5H19C19.2652 2.5 19.5196 2.60536 19.7071 2.79289C19.8946 2.98043 20 3.23478 20 3.5V8.5H0V3.5C0 3.23478 0.105357 2.98043 0.292893 2.79289C0.48043 2.60536 0.734784 2.5 1 2.5H5V0.5H7V2.5H13V0.5H15V2.5Z" fill="white"/>
</svg>

<svg xmlns="http://www.w3.org/2000/svg" width="20" height="21" fill="none"><path fill="#fff" d="M0 10.5h20v9a1 1 0 0 1-1 1H1a1 1 0 0 1-1-1zm15-8h4a1 1 0 0 1 1 1v5H0v-5a1 1 0 0 1 1-1h4v-2h2v2h6v-2h2z"/></svg>
